img/vk-red.svg

<svg width="33" height="33" viewBox="0 0 33 33" fill="none" xmlns="http://www.w3.org/2000/svg">
<path id="vk" d="M16.5023 0.468262C13.2389 0.468262 10.0488 1.40665 7.33542 3.16475C4.62201 4.92285 2.50716 7.42171 1.25831 10.3453C0.00946868 13.2689 -0.317286 16.486 0.319369 19.5897C0.956025 22.6934 2.5275 25.5443 4.83506 27.782C7.14263 30.0196 10.0826 31.5435 13.2833 32.1608C16.484 32.7782 19.8016 32.4613 22.8166 31.2503C25.8316 30.0393 28.4085 27.9886 30.2216 25.3574C32.0346 22.7262 33.0023 19.6328 33.0023 16.4683C33.0023 14.3671 32.5755 12.2865 31.7463 10.3453C30.9171 8.40412 29.7017 6.64029 28.1696 5.15455C26.6374 3.66882 24.8185 2.49026 22.8166 1.68619C20.8147 0.882114 18.6691 0.468262 16.5023 0.468262ZM26.8856 12.0643C26.7457 12.3846 26.6288 12.7165 26.4605 13.0217C25.9084 14.0352 25.1576 14.9212 24.4528 15.8366C24.0894 16.3077 23.7287 16.7814 23.4048 17.2784C23.1573 17.6576 23.2208 18.0225 23.5226 18.3624C23.6689 18.5266 23.8281 18.68 23.9827 18.8344C24.5789 19.4152 25.2009 19.9737 25.7676 20.5805C26.2571 21.1051 26.7669 21.6377 26.8819 22.3881V22.43C26.742 22.8395 26.5368 23.0055 26.0796 23.0198C25.0813 23.051 24.0802 23.0394 23.0837 23.0956C22.2179 23.1456 21.5306 22.8279 20.9482 22.2533C20.4744 21.7903 20.0401 21.2898 19.5763 20.8169C19.4062 20.6448 19.2174 20.4911 19.0133 20.3583C18.6664 20.1317 18.418 20.1736 18.1336 20.4734C17.8125 20.8124 17.726 21.2389 17.6736 21.6734C17.6469 21.8893 17.6488 22.1079 17.634 22.3247C17.6055 22.7405 17.393 22.9885 16.967 23.018C16.4701 23.0519 15.9687 23.0528 15.47 23.0403C15.0583 23.0362 14.6475 23.0034 14.2407 22.9421C13.0446 22.7432 12.0325 22.1454 11.0535 21.4771C10.1454 20.8526 9.47191 20.0228 8.8122 19.1761C7.13395 17.0188 5.85503 14.641 4.73344 12.1758C4.51169 11.6896 4.67547 11.4166 5.22845 11.3728C5.63144 11.3425 6.03813 11.3514 6.44389 11.3488C7.08795 11.3434 7.73201 11.3425 8.37608 11.3398C8.85084 11.3398 9.16736 11.5424 9.37898 11.9644C9.94269 13.1011 10.5236 14.2297 11.1216 15.3503C11.3632 15.8334 11.7105 16.2597 12.1392 16.5994C12.2462 16.6826 12.3661 16.7489 12.4944 16.7957C12.7465 16.8849 12.9406 16.7957 13.0713 16.5718C13.2857 16.2051 13.3022 15.7946 13.3473 15.3923C13.4683 14.4709 13.4328 13.5366 13.2424 12.6264C13.1265 12.0991 12.7879 11.8234 12.2644 11.711C12.1801 11.6847 12.0988 11.6503 12.0215 11.6084C12.0584 11.527 12.1044 11.4499 12.1586 11.3782C12.3737 11.1358 12.6722 10.9773 12.9986 10.9321C14.2462 10.743 15.5164 10.7412 16.7645 10.9267C17.3819 11.0222 17.6064 11.2247 17.6653 11.9216C17.7113 12.472 17.6653 13.0297 17.6561 13.5846C17.6478 14.3145 17.6304 15.0443 17.6386 15.7741C17.6425 15.9917 17.6864 16.2068 17.7684 16.4094C17.9386 16.8358 18.2772 16.8938 18.636 16.603C19.2194 16.1301 19.6113 15.5154 20.0161 14.9078C20.62 13.9828 21.132 13.0045 21.5453 11.9858C21.5925 11.8683 21.6497 11.7549 21.7165 11.6468C21.7607 11.5695 21.8256 11.5051 21.9042 11.4604C21.9829 11.4157 22.0725 11.3922 22.1636 11.3925C23.4821 11.3773 24.7997 11.355 26.12 11.3559C26.4338 11.3559 26.7641 11.4094 26.8911 11.7726L26.8856 12.0643Z" fill="#C8102E"/>
</svg>

<svg width="33" height="33" fill="none" xmlns="http://www.w3.org/2000/svg"><path d="M16.502.468c-3.263 0-6.453.939-9.167 2.697a16.117 16.117 0 00-6.077 7.18A15.55 15.55 0 00.32 19.59a15.856 15.856 0 004.516 8.192 16.665 16.665 0 008.448 4.379c3.201.617 6.519.3 9.534-.91a16.401 16.401 0 007.405-5.894 15.658 15.658 0 002.78-8.889 15.58 15.58 0 00-1.256-6.123 15.978 15.978 0 00-3.576-5.19 16.544 16.544 0 00-5.353-3.469A16.949 16.949 0 0016.502.468zm10.384 11.596c-.14.32-.257.652-.425.958-.553 1.013-1.303 1.9-2.008 2.815-.364.47-.724.944-1.048 1.441-.248.38-.184.745.118 1.084.146.165.305.318.46.472.596.581 1.218 1.14 1.785 1.747.49.524.999 1.057 1.114 1.807v.042c-.14.41-.345.576-.802.59-.999.031-2 .02-2.996.076-.866.05-1.553-.268-2.136-.843-.474-.463-.908-.963-1.372-1.436a3.393 3.393 0 00-.563-.459c-.347-.226-.595-.184-.88.115-.32.34-.407.766-.46 1.2-.026.216-.024.435-.039.652-.029.416-.241.663-.667.693-.497.034-.998.035-1.497.022a8.841 8.841 0 01-1.23-.098c-1.195-.199-2.207-.797-3.187-1.465-.908-.624-1.581-1.454-2.24-2.3-1.68-2.158-2.958-4.536-4.08-7.001-.221-.486-.058-.76.495-.803.403-.03.81-.022 1.216-.024.644-.006 1.288-.007 1.932-.01.475 0 .791.203 1.003.625a127.691 127.691 0 001.743 3.386c.241.483.588.91 1.017 1.25.107.083.227.149.355.196.252.089.447 0 .577-.224.215-.367.231-.777.276-1.18a8.254 8.254 0 00-.105-2.766c-.116-.527-.454-.803-.978-.915a1.359 1.359 0 01-.242-.103 1.21 1.21 0 01.137-.23c.215-.242.513-.4.84-.446a12.69 12.69 0 013.766-.005c.617.095.841.298.9.995.046.55 0 1.108-.009 1.663-.008.73-.026 1.46-.017 2.19.003.217.047.432.13.634.17.427.508.485.867.194.583-.473.975-1.088 1.38-1.695a17.116 17.116 0 001.53-2.922c.047-.118.104-.231.17-.34a.501.501 0 01.188-.186.522.522 0 01.26-.068c1.318-.015 2.636-.037 3.956-.036.314 0 .644.053.771.417l-.005.291z" fill="#C8102E"/></svg>
